assets/img/braze_icons/moon-01.svg

<svg fill="none" height="24" viewBox="0 0 24 24" width="24" xmlns="http://www.w3.org/2000/svg"><path d="m9.06693 2.41209c.17148-.37917.09021-.82491-.20405-1.11917-.29426-.294256-.73999-.375524-1.11917-.20405-3.97478 1.79755-6.74371 5.79877-6.74371 10.44883 0 6.3305 5.13185 11.4623 11.4623 11.4623 4.6501 0 8.6513-2.7689 10.4489-6.7437.1714-.3792.0902-.8249-.2041-1.1192-.2943-.2942-.74-.3755-1.1192-.204-1.1864.5366-2.5041.8358-3.8944.8358-5.2259 0-9.46234-4.2364-9.46234-9.46234 0-1.39028.2992-2.70799.83577-3.89447z" fill="#801ed7"/></svg>

<svg width="24" height="24" viewBox="0 0 24 24" fill="none" xmlns="http://www.w3.org/2000/svg">
<path d="M9.06693 2.41209C9.23841 2.03292 9.15714 1.58718 8.86288 1.29292C8.56862 0.998664 8.12289 0.917396 7.74371 1.08887C3.76893 2.88642 1 6.88764 1 11.5377C1 17.8682 6.13185 23 12.4623 23C17.1124 23 21.1136 20.2311 22.9112 16.2563C23.0826 15.8771 23.0014 15.4314 22.7071 15.1371C22.4128 14.8429 21.9671 14.7616 21.5879 14.9331C20.4015 15.4697 19.0838 15.7689 17.6935 15.7689C12.4676 15.7689 8.23116 11.5325 8.23116 6.30656C8.23116 4.91628 8.53036 3.59857 9.06693 2.41209Z" fill="#801ED7"/>
</svg>
